icons/linear-ele-other-printer.svg

<svg xmlns="http://www.w3.org/2000/svg" width="32px" height="32px" viewBox="0 0 32 32" version="1.1">
    <title>linear-ele-other-printer</title>
    <g id="linear-ele-other-printer" stroke-width="1" fill-rule="evenodd">
        <path d="M23,2 C23.5522847,2 24,2.44771525 24,3 L24,8 L27,8 C28.6568542,8 30,9.34314575 30,11 L30,23 C30,23.5522847 29.5522847,24 29,24 L24,24 L24,29 C24,29.5522847 23.5522847,30 23,30 L9,30 C8.44771525,30 8,29.5522847 8,29 L8,24 L3,24 C2.44771525,24 2,23.5522847 2,23 L2,11 C2,9.34314575 3.34314575,8 5,8 L8,8 L8,3 C8,2.44771525 8.44771525,2 9,2 L23,2 Z M22,18 L10,18 L10,28 L22,28 L22,18 Z M27,10 L5,10 C4.44771525,10 4,10.4477153 4,11 L4,22 L8,22 L8,17 C8,16.4477153 8.44771525,16 9,16 L23,16 C23.5522847,16 24,16.4477153 24,17 L24,22 L28,22 L28,11 C28,10.4871642 27.6139598,10.0644928 27.1166211,10.0067277 L27,10 Z M9,12 C9.55228475,12 10,12.4477153 10,13 C10,13.5522847 9.55228475,14 9,14 C8.44771525,14 8,13.5522847 8,13 C8,12.4477153 8.44771525,12 9,12 Z M13,12 C13.5522847,12 14,12.4477153 14,13 C14,13.5522847 13.5522847,14 13,14 C12.4477153,14 12,13.5522847 12,13 C12,12.4477153 12.4477153,12 13,12 Z M22,4 L10,4 L10,8 L22,8 L22,4 Z" id="&#24418;&#29366;" fill-rule="nonzero" />
    </g>
</svg>

<svg xmlns="http://www.w3.org/2000/svg" viewBox="0 0 32 32"><path fill="currentColor" d="M23 2a1 1 0 0 1 1 1v5h3a3 3 0 0 1 3 3v12a1 1 0 0 1-1 1h-5v5a1 1 0 0 1-1 1H9a1 1 0 0 1-1-1v-5H3a1 1 0 0 1-1-1V11a3 3 0 0 1 3-3h3V3a1 1 0 0 1 1-1zm-1 16H10v10h12zm5-8H5a1 1 0 0 0-1 1v11h4v-5a1 1 0 0 1 1-1h14a1 1 0 0 1 1 1v5h4V11a1 1 0 0 0-.883-.993zM9 12a1 1 0 1 1 0 2 1 1 0 0 1 0-2m4 0a1 1 0 1 1 0 2 1 1 0 0 1 0-2m9-8H10v4h12z"/></svg>
